resources/svg/discord.svg

<svg xmlns="http://www.w3.org/2000/svg" viewBox="0 0 18 20" fill="currentColor"><path d="M15.45,0 C16.5684694,0 17.4812026,0.901320283 17.4997134,2.02517151 L17.5,2.06 L17.5,20 L15.35,18.1 L14.14,16.98 L12.86,15.79 L13.39,17.64 L2.05,17.64 C0.931530612,17.64 0.0187973761,16.7386797 0.000286625896,15.6148285 L0,15.58 L0,2.06 C0,0.931632653 0.901320283,0.0187984173 2.01547452,0.00028663652 L2.05,0 L15.45,0 Z M7.32,4.78 L7.22,4.6599169 L7.1630624,4.66059412 C6.890192,4.66871965 5.6772,4.7596 4.41,5.71 L4.36156128,5.802081 C4.110624,6.291581 2.97,8.6742 2.97,11.54 L2.99079837,11.5731719 C3.132297,11.789822 4.0089,12.9963 6.02,13.06 L6.31452473,12.6987136 C6.43107266,12.5548097 6.56647059,12.3864706 6.69,12.23 C5.5242617,11.8811964 5.02413637,11.1785226 4.94987673,11.0655003 L4.94,11.05 L4.98113281,11.0774219 C5.02625,11.1067188 5.1075,11.1575 5.22,11.22 C5.23,11.23 5.24,11.24 5.26,11.25 C5.29,11.27 5.32,11.28 5.35,11.3 C5.6,11.44 5.85,11.55 6.08,11.64 C6.49,11.8 6.98,11.96 7.55,12.07 C8.27857143,12.206 9.12982041,12.2570694 10.0579114,12.0948686 L10.14,12.08 C10.61,12 11.09,11.86 11.59,11.65 C11.94,11.52 12.33,11.33 12.74,11.06 L12.7236045,11.0849198 C12.6278835,11.2248395 12.1044828,11.9182759 10.93,12.25 L11.0953826,12.4572606 C11.347936,12.770868 11.59,13.06 11.59,13.06 C13.8,12.99 14.65,11.54 14.65,11.54 C14.65,8.32 13.21,5.71 13.21,5.71 C11.9716,4.7812 10.784972,4.67329454 10.4769888,4.66128549 L10.4,4.6599169 L10.26,4.82 C11.7675403,5.28112997 12.5594623,5.92313048 12.7194499,6.06258405 L12.75,6.09 C11.71,5.52 10.69,5.24 9.74,5.13 C9.02,5.05 8.33,5.07 7.72,5.15 C7.66,5.15 7.61,5.16 7.55,5.17 L7.493785,5.17528 C7.11445,5.21385 6.2965,5.3535 5.28,5.8 L5.13470143,5.86775227 C4.9530442,5.9537305 4.82068394,6.02127593 4.74962341,6.05838585 L4.69,6.09 C4.69,6.09 5.503483,5.315721 7.26629086,4.79567994 L7.32,4.78 Z M6.94,8.39 C7.51,8.39 7.97,8.89 7.96,9.5 C7.96,10.11 7.51,10.61 6.94,10.61 C6.38,10.61 5.92,10.11 5.92,9.5 C5.92,8.89 6.37,8.39 6.94,8.39 Z M10.59,8.39 C11.16,8.39 11.61,8.89 11.61,9.5 C11.61,10.11 11.16,10.61 10.59,10.61 C10.03,10.61 9.57,10.11 9.57,9.5 C9.57,8.89 10.02,8.39 10.59,8.39 Z"/></svg>

<svg xmlns="http://www.w3.org/2000/svg" fill="currentColor" viewBox="0 0 18 20"><path d="M15.45 0c1.118 0 2.031.901 2.05 2.025V20l-2.15-1.9-1.21-1.12-1.28-1.19.53 1.85H2.05A2.055 2.055 0 0 1 0 15.615V2.06C0 .932.901.019 2.015 0H15.45ZM7.32 4.78l-.1-.12h-.057c-.273.009-1.486.1-2.753 1.05l-.048.092c-.251.49-1.392 2.872-1.392 5.738l.02.033c.142.217 1.019 1.423 3.03 1.487l.295-.361.375-.469c-1.166-.349-1.666-1.051-1.74-1.164l-.01-.016.041.027c.045.03.127.08.239.143.01.01.02.02.04.03.03.02.06.03.09.05.25.14.5.25.73.34.41.16.9.32 1.47.43.729.136 1.58.187 2.508.025l.082-.015c.47-.08.95-.22 1.45-.43.35-.13.74-.32 1.15-.59l-.016.025c-.096.14-.62.833-1.794 1.165l.165.207c.253.314.495.603.495.603 2.21-.07 3.06-1.52 3.06-1.52 0-3.22-1.44-5.83-1.44-5.83-1.238-.929-2.425-1.037-2.733-1.049L10.4 4.66l-.14.16c1.508.461 2.3 1.103 2.46 1.243l.03.027a8.152 8.152 0 0 0-5.03-.94c-.06 0-.11.01-.17.02l-.056.005c-.38.039-1.197.179-2.214.625l-.145.068c-.182.086-.314.153-.385.19l-.06.032s.813-.774 2.576-1.294l.054-.016Zm-.38 3.61c.57 0 1.03.5 1.02 1.11 0 .61-.45 1.11-1.02 1.11-.56 0-1.02-.5-1.02-1.11 0-.61.45-1.11 1.02-1.11Zm3.65 0c.57 0 1.02.5 1.02 1.11 0 .61-.45 1.11-1.02 1.11-.56 0-1.02-.5-1.02-1.11 0-.61.45-1.11 1.02-1.11Z"/></svg>
